src/svgs/double-arrow-left.svg

<?xml version="1.0" encoding="utf-8"?>
<!-- Generated by IcoMoon.io -->
<!DOCTYPE svg PUBLIC "-//W3C//DTD SVG 1.1//EN" "http://www.w3.org/Graphics/SVG/1.1/DTD/svg11.dtd">
<svg version="1.1" xmlns="http://www.w3.org/2000/svg" xmlns:xlink="http://www.w3.org/1999/xlink" width="37" height="32" viewBox="0 0 37 32">
<path d="M0.472 15.296c-0.345 0.345-0.472 0.744-0.472 1.289s0.145 0.962 0.472 1.289l15.174 14.376c0.345 0.272 0.744 0.417 1.162 0.417 0.545 0 0.962-0.145 1.289-0.472 0.617-0.69 0.617-1.706-0.073-2.378l-13.885-13.069 13.831-13.159c0.69-0.617 0.744-1.706 0.073-2.378-0.617-0.69-1.706-0.744-2.396-0.073l-15.174 14.158zM19.167 15.296c-0.345 0.345-0.472 0.744-0.472 1.289s0.145 0.962 0.472 1.289l15.174 14.357c0.345 0.272 0.744 0.417 1.162 0.417 0.545 0 0.962-0.145 1.289-0.472 0.617-0.69 0.617-1.706-0.073-2.378l-13.885-13.069 13.831-13.141c0.69-0.617 0.744-1.706 0.073-2.378-0.617-0.672-1.706-0.744-2.378-0.073l-15.192 14.158z"></path>
</svg>

<svg xmlns="http://www.w3.org/2000/svg" width="37" height="32" viewBox="0 0 37 32">
    <path d="M.472 15.296C.127 15.641 0 16.04 0 16.585s.145.962.472 1.289L15.646 32.25c.345.272.744.417 1.162.417.545 0 .962-.145 1.289-.472.617-.69.617-1.706-.073-2.378L4.139 16.748 17.97 3.589a1.64 1.64 0 0 0 .073-2.378 1.661 1.661 0 0 0-2.396-.073L.473 15.296zm18.695 0c-.345.345-.472.744-.472 1.289s.145.962.472 1.289l15.174 14.357c.345.272.744.417 1.162.417.545 0 .962-.145 1.289-.472.617-.69.617-1.706-.073-2.378L22.834 16.729 36.665 3.588a1.64 1.64 0 0 0 .073-2.378c-.617-.672-1.706-.744-2.378-.073L19.168 15.295z"/>
</svg>
